T: Reel De L'aveugle
M: 4/4
L: 1/8
K: Amaj
FD (3DDD EDB,D | A,DFA BAFD | CEAB cBAG | FAde fdAG |F2 (3FFD ED (3B,CD | A,DFA BAFD | CEAB cE (3BAG | FdAF D2 :|fd (3BAG FdAd | BA^GB edcB | Acef (3ggg fd | fe^df ea^g=g |fdAF d2 FA | BA^GB e2 cB | A2 (3fed cA (3GFE | DdAF D2 :||: dc | BG (3GGG AGEG | ~|: ga | bg (3edB gd (3Bcd | ~|: ed | c ~A3 B ~A3 | ~|: ab | c'2 fc aece | ~
